webgl/about-detail/lut_1.3dl
#Created by: Adobe Photoshop Export Color Lookup Plugin
#Description: LUTS_AboutDetails_v0002.psd
0 171 341 512 682 853 1023
0 0 0
57 57 419
135 135 1001
235 235 1741
335 335 2477
417 417 3083
488 488 3607
71 522 71
71 522 433
135 587 1001
235 687 1741
335 787 2477
417 869 3083
488 940 3607
159 1173 159
159 1173 521
159 1173 1024
235 1250 1741
335 1350 2477
417 1431 3083
488 1502 3607
259 1914 259
259 1914 621
259 1914 1125
259 1914 1764
335 1990 2477
417 2072 3083
488 2143 3607
351 2592 351
351 2592 713
351 2592 1217
351 2592 1856
351 2592 2493
417 2658 3083
488 2729 3607
424 3136 424
424 3136 786
424 3136 1290
424 3136 1930
424 3136 2566
424 3136 3090
488 3200 3607
488 3607 488
488 3607 850
488 3607 1354
488 3607 1993
488 3607 2630
488 3607 3154
488 3607 3607
532 72 72
532 72 434
595 135 1001
696 235 1741
795 335 2477
877 417 3083
948 488 3607
532 524 72
589 580 491
666 658 1072
766 758 1812
866 857 2548
948 939 3154
1019 1010 3678
619 1173 159
675 1229 577
691 1245 1096
767 1322 1813
867 1421 2549
949 1503 3155
1020 1574 3679
719 1914 259
776 1971 678
791 1986 1197
791 1986 1837
867 2062 2549
949 2144 3155
1020 2215 3679
811 2592 351
867 2648 769
883 2664 1288
883 2664 1928
883 2664 2564
949 2730 3155
1020 2801 3679
884 3136 424
941 3192 843
956 3208 1362
956 3208 2002
956 3208 2638
956 3208 3162
1020 3271 3679
948 3607 488
1005 3664 907
1020 3679 1426
1020 3679 2066
1020 3679 2702
1020 3679 3226
1020 3679 3679
1188 161 161
1188 161 523
1188 161 1027
1262 235 1741
1362 335 2477
1444 417 3083
1515 488 3607
1188 612 161
1244 669 579
1259 683 1097
1334 758 1812
1433 857 2548
1515 939 3154
1586 1010 3678
1188 1175 161
1244 1231 579
1323 1310 1162
1421 1408 1900
1521 1508 2636
1603 1590 3242
1674 1661 3766
1286 1914 259
1343 1971 678
1422 2050 1260
1447 2075 1925
1523 2151 2638
1605 2233 3244
1676 2304 3768
1378 2592 351
1434 2648 769
1513 2727 1352
1538 2752 2017
1538 2752 2653
1605 2819 3244
1676 2890 3768
1452 3136 424
1508 3192 843
1587 3271 1426
1612 3296 2090
1612 3296 2727
1612 3296 3251
1676 3360 3768
1515 3607 488
1572 3664 907
1650 3743 1489
1676 3768 2154
1676 3768 2791
1676 3768 3315
1676 3768 3768
1929 261 261
1929 261 623
1929 261 1127
1929 261 1767
2003 335 2477
2085 417 3083
2156 488 3607
1929 713 261
1985 769 679
1999 783 1197
1999 783 1837
2073 857 2548
2156 939 3154
2226 1010 3678
1929 1275 261
1985 1332 679
2064 1411 1262
2087 1434 1925
2161 1508 2636
2244 1590 3242
2314 1661 3766
1929 1916 261
1985 1973 679
2064 2052 1262
2164 2152 2002
2262 2249 2736
2344 2331 3342
2415 2402 3866
2018 2592 351
2075 2648 769
2154 2727 1352
2254 2827 2092
2279 2852 2753
2346 2919 3344
2417 2990 3868
2092 3136 424
2148 3192 843
2228 3271 1426
2327 3371 2165
2353 3397 2827
2353 3397 3351
2417 3460 3868
2156 3607 488
2212 3664 907
2291 3743 1489
2391 3843 2229
2417 3868 2891
2417 3868 3415
2417 3868 3868
2601 352 352
2601 352 714
2601 352 1218
2601 352 1857
2601 352 2494
2666 417 3083
2737 488 3607
2601 804 352
2657 860 770
2671 874 1288
2671 874 1928
2671 874 2564
2737 939 3154
2808 1010 3678
2601 1366 352
2657 1423 770
2736 1501 1353
2759 1525 2016
2759 1525 2652
2825 1590 3242
2896 1661 3766
2601 2007 352
2657 2064 770
2736 2143 1353
2836 2243 2093
2860 2266 2753
2925 2331 3342
2996 2402 3866
2601 2593 352
2657 2650 770
2736 2728 1353
2836 2828 2093
2936 2928 2829
3017 3009 3434
3087 3079 3958
2673 3136 424
2730 3192 843
2809 3271 1426
2909 3371 2165
3008 3471 2901
3025 3488 3442
3089 3551 3959
2737 3607 488
2793 3664 907
2872 3743 1489
2972 3843 2229
3072 3942 2965
3089 3959 3506
3089 3959 3959
3140 425 425
3140 425 787
3140 425 1290
3140 425 1930
3140 425 2566
3140 425 3091
3203 488 3607
3140 877 425
3196 933 843
3211 947 1362
3211 947 2001
3211 947 2638
3211 947 3161
3274 1010 3678
3140 1439 425
3196 1495 843
3275 1574 1426
3299 1598 2089
3299 1598 2725
3299 1598 3249
3362 1661 3766
3140 2080 425
3196 2136 843
3275 2216 1426
3375 2316 2166
3399 2339 2826
3399 2339 3350
3462 2402 3866
3140 2666 425
3196 2722 843
3275 2801 1426
3375 2901 2166
3475 3001 2902
3490 3016 3441
3554 3079 3958
3140 3136 425
3196 3193 843
3275 3272 1426
3375 3372 2166
3475 3471 2902
3557 3553 3508
3627 3624 4031
3203 3607 488
3260 3664 907
3339 3743 1489
3438 3843 2229
3538 3942 2965
3620 4024 3571
3628 4032 4032
3607 488 488
3607 488 850
3607 488 1354
3607 488 1993
3607 488 2630
3607 488 3154
3607 488 3607
3607 940 488
3664 996 907
3678 1010 1424
3678 1010 2064
3678 1010 2700
3678 1010 3224
3678 1010 3678
3607 1502 488
3664 1559 907
3743 1638 1489
3766 1661 2152
3766 1661 2788
3766 1661 3312
3766 1661 3766
3607 2143 488
3664 2200 907
3743 2279 1489
3843 2379 2229
3866 2402 2889
3866 2402 3413
3866 2402 3866
3607 2729 488
3664 2785 907
3743 2865 1489
3843 2964 2229
3942 3064 2965
3958 3079 3504
3958 3079 3958
3607 3200 488
3664 3256 907
3743 3335 1489
3843 3435 2229
3942 3535 2965
4024 3616 3571
4031 3624 4031
3607 3607 488
3664 3664 907
3743 3743 1489
3843 3843 2229
3942 3942 2965
4024 4024 3571
4095 4095 4095
