webgl/about-detail/lut_2.3dl
#Created by: Adobe Photoshop Export Color Lookup Plugin
#Description: LUTS_AboutDetails_v0002.psd
0 171 341 512 682 853 1023
0 0 0
60 60 444
141 141 1044
242 242 1786
339 339 2507
419 419 3097
488 488 3607
68 500 68
68 500 452
141 574 1044
242 674 1786
339 772 2507
419 852 3097
488 920 3607
154 1137 154
154 1137 538
154 1137 1057
242 1225 1786
339 1323 2507
419 1402 3097
488 1472 3607
254 1880 254
254 1880 638
254 1880 1157
254 1880 1798
339 1965 2507
419 2044 3097
488 2114 3607
348 2569 348
348 2569 732
348 2569 1251
348 2569 1892
348 2569 2516
419 2640 3097
488 2710 3607
423 3125 423
423 3125 807
423 3125 1326
423 3125 1967
423 3125 2591
423 3125 3100
488 3191 3607
488 3607 488
488 3607 872
488 3607 1391
488 3607 2032
488 3607 2656
488 3607 3166
488 3607 3607
506 68 68
506 68 453
578 141 1044
679 242 1786
776 339 2507
856 419 3097
925 488 3607
506 501 68
565 561 512
646 642 1112
746 742 1854
844 840 2575
924 919 3165
993 988 3675
591 1137 154
651 1197 598
659 1206 1125
747 1294 1854
845 1391 2576
924 1471 3165
993 1540 3675
691 1880 254
751 1940 698
760 1948 1226
760 1948 1867
845 2033 2576
924 2113 3165
993 2182 3675
785 2569 348
845 2629 792
853 2638 1319
853 2638 1960
853 2638 2584
924 2709 3165
993 2778 3675
860 3125 423
920 3186 867
928 3194 1394
928 3194 2036
928 3194 2659
928 3194 3169
993 3259 3675
925 3607 488
985 3667 932
993 3675 1460
993 3675 2101
993 3675 2725
993 3675 3234
993 3675 3675
1145 155 155
1145 155 539
1145 155 1058
1232 242 1786
1329 339 2507
1409 419 3097
1479 488 3607
1145 588 155
1206 648 599
1213 655 1126
1300 742 1854
1398 840 2575
1477 919 3165
1546 988 3675
1145 1138 155
1206 1199 599
1287 1280 1199
1386 1379 1940
1484 1477 2661
1563 1556 3251
1632 1625 3761
1245 1880 254
1305 1940 698
1386 2021 1299
1400 2035 1954
1485 2120 2662
1564 2199 3252
1633 2268 3762
1338 2569 348
1398 2629 792
1479 2711 1392
1493 2724 2047
1493 2724 2670
1564 2796 3252
1633 2865 3762
1413 3125 423
1473 3186 867
1555 3267 1467
1568 3280 2122
1568 3280 2746
1568 3280 3256
1633 3346 3762
1479 3607 488
1538 3667 932
1619 3748 1532
1633 3762 2187
1633 3762 2811
1633 3762 3321
1633 3762 3762
1888 255 255
1888 255 639
1888 255 1159
1888 255 1800
1972 339 2507
2051 419 3097
2120 488 3607
1888 688 255
1948 748 699
1955 756 1226
1955 756 1867
2039 840 2575
2119 919 3165
2188 988 3675
1888 1239 255
1948 1299 699
2029 1380 1300
2041 1393 1954
2125 1477 2661
2205 1556 3251
2274 1625 3761
1888 1881 255
1948 1941 699
2029 2022 1300
2129 2122 2041
2226 2219 2762
2305 2299 3351
2374 2368 3861
1980 2569 348
2040 2629 792
2121 2711 1392
2221 2811 2133
2235 2825 2771
2306 2896 3352
2375 2965 3862
2055 3125 423
2115 3186 867
2196 3267 1467
2297 3367 2209
2310 3381 2846
2310 3381 3356
2375 3446 3862
2120 3607 488
2180 3667 932
2261 3748 1532
2362 3849 2274
2375 3862 2911
2375 3862 3421
2375 3862 3862
2574 348 348
2574 348 732
2574 348 1251
2574 348 1893
2574 348 2517
2645 419 3097
2714 488 3607
2574 781 348
2634 841 792
2642 849 1319
2642 849 1960
2642 849 2584
2712 919 3165
2781 988 3675
2574 1332 348
2634 1392 792
2715 1473 1393
2728 1486 2047
2728 1486 2670
2799 1556 3251
2868 1625 3761
2574 1974 348
2634 2034 792
2715 2115 1393
2816 2215 2134
2828 2228 2771
2899 2299 3351
2968 2368 3861
2574 2570 348
2634 2630 792
2715 2711 1393
2816 2812 2134
2913 2909 2855
2993 2988 3444
3061 3057 3955
2649 3125 423
2709 3186 867
2790 3267 1467
2890 3367 2209
2988 3465 2930
2997 3474 3449
3062 3539 3955
2714 3607 488
2774 3667 932
2855 3748 1532
2956 3849 2274
3053 3946 2995
3062 3955 3514
3062 3955 3955
3128 423 423
3128 423 807
3128 423 1326
3128 423 1968
3128 423 2591
3128 423 3101
3193 488 3607
3128 856 423
3188 916 867
3195 923 1394
3195 923 2035
3195 923 2659
3195 923 3169
3260 988 3675
3128 1407 423
3188 1467 867
3269 1548 1468
3282 1560 2121
3282 1560 2745
3282 1560 3255
3346 1625 3761
3128 2049 423
3188 2108 867
3269 2190 1468
3369 2290 2209
3382 2303 2846
3382 2303 3355
3447 2368 3861
3128 2645 423
3188 2705 867
3269 2786 1468
3369 2887 2209
3467 2984 2930
3475 2992 3449
3540 3057 3955
3128 3126 423
3188 3186 867
3269 3267 1468
3369 3367 2209
3467 3465 2930
3547 3545 3520
3615 3613 4030
3193 3607 488
3252 3667 932
3334 3748 1532
3434 3849 2274
3532 3946 2995
3611 4026 3585
3616 4030 4030
3607 488 488
3607 488 872
3607 488 1391
3607 488 2032
3607 488 2656
3607 488 3166
3607 488 3607
3607 920 488
3667 981 932
3675 988 1459
3675 988 2100
3675 988 2724
3675 988 3233
3675 988 3675
3607 1472 488
3667 1532 932
3748 1613 1532
3761 1625 2186
3761 1625 2810
3761 1625 3320
3761 1625 3761
3607 2114 488
3667 2173 932
3748 2255 1532
3849 2355 2274
3861 2368 2910
3861 2368 3420
3861 2368 3861
3607 2710 488
3667 2770 932
3748 2851 1532
3849 2951 2274
3946 3049 2995
3955 3057 3513
3955 3057 3955
3607 3191 488
3667 3250 932
3748 3332 1532
3849 3432 2274
3946 3530 2995
4026 3609 3585
4030 3613 4030
3607 3607 488
3667 3667 932
3748 3748 1532
3849 3849 2274
3946 3946 2995
4026 4026 3585
4095 4095 4095
