webgl/about-detail/lut_4.3dl
#Created by: Adobe Photoshop Export Color Lookup Plugin
#Description: LUTS_AboutDetails_v0002.psd
0 171 341 512 682 853 1023
0 0 0
78 78 397
186 186 950
324 324 1652
461 461 2351
574 574 2926
672 672 3423
97 496 97
97 496 417
186 585 950
324 723 1652
461 860 2351
574 973 2926
672 1070 3423
218 1113 218
218 1113 538
218 1113 982
324 1219 1652
461 1356 2351
574 1469 2926
672 1567 3423
357 1817 357
357 1817 676
357 1817 1120
357 1817 1684
461 1921 2351
574 2034 2926
672 2132 3423
483 2459 483
483 2459 802
483 2459 1247
483 2459 1811
483 2459 2372
574 2551 2926
672 2649 3423
584 2976 584
584 2976 903
584 2976 1348
584 2976 1912
584 2976 2474
584 2976 2936
672 3064 3423
672 3423 672
672 3423 991
672 3423 1436
672 3423 2000
672 3423 2561
672 3423 3024
672 3423 3423
505 99 99
505 99 418
592 186 950
730 324 1652
867 461 2351
980 574 2926
1078 672 3423
505 498 99
583 576 496
690 682 1048
827 820 1750
964 957 2448
1077 1070 3023
1175 1168 3520
624 1113 218
702 1191 616
723 1212 1081
829 1318 1751
966 1455 2450
1079 1568 3025
1177 1666 3522
762 1817 357
840 1895 754
861 1916 1219
861 1916 1784
966 2021 2450
1079 2133 3025
1177 2231 3522
889 2459 483
967 2537 880
988 2559 1345
988 2559 1910
988 2559 2471
1079 2650 3025
1177 2747 3522
990 2976 584
1068 3054 981
1089 3075 1447
1089 3075 2011
1089 3075 2572
1089 3075 3035
1177 3163 3522
1078 3423 672
1156 3501 1069
1177 3522 1535
1177 3522 2099
1177 3522 2660
1177 3522 3123
1177 3522 3522
1127 221 221
1127 221 541
1127 221 985
1230 324 1652
1367 461 2351
1480 574 2926
1578 672 3423
1127 620 221
1205 698 618
1225 717 1082
1328 820 1750
1465 957 2448
1577 1070 3023
1675 1168 3520
1127 1116 221
1205 1194 618
1314 1302 1172
1449 1437 1871
1586 1574 2569
1699 1687 3144
1796 1785 3642
1263 1817 357
1341 1895 754
1449 2003 1307
1484 2038 1906
1589 2143 2572
1701 2256 3147
1799 2353 3644
1389 2459 483
1467 2537 880
1575 2646 1433
1610 2681 2032
1610 2681 2593
1701 2772 3147
1799 2870 3644
1490 2976 584
1568 3054 981
1677 3162 1534
1711 3197 2133
1711 3197 2695
1711 3197 3157
1799 3285 3644
1578 3423 672
1656 3501 1069
1764 3610 1622
1799 3644 2221
1799 3644 2783
1799 3644 3245
1799 3644 3644
1830 359 359
1830 359 678
1830 359 1123
1830 359 1687
1932 461 2351
2045 574 2926
2143 672 3423
1830 758 359
1908 836 756
1928 855 1220
1928 855 1785
2030 957 2448
2143 1070 3023
2240 1168 3520
1830 1254 359
1908 1332 756
2017 1440 1310
2049 1472 1906
2151 1574 2569
2264 1687 3144
2362 1785 3642
1830 1819 359
1908 1897 756
2017 2006 1310
2155 2144 2012
2289 2278 2707
2402 2391 3282
2500 2489 3780
1954 2459 483
2032 2537 880
2140 2646 1433
2278 2784 2135
2313 2819 2731
2405 2910 3285
2502 3008 3782
2055 2976 584
2133 3054 981
2242 3162 1534
2379 3300 2236
2414 3335 2833
2414 3335 3295
2502 3423 3782
2143 3423 672
2221 3501 1069
2330 3610 1622
2467 3747 2324
2502 3782 2920
2502 3782 3383
2502 3782 3782
2468 484 484
2468 484 804
2468 484 1248
2468 484 1812
2468 484 2374
2558 574 2926
2655 672 3423
2468 883 484
2546 961 882
2565 980 1346
2565 980 1910
2565 980 2471
2655 1070 3023
2753 1168 3520
2468 1379 484
2546 1457 882
2655 1565 1435
2687 1597 2031
2687 1597 2592
2776 1687 3144
2874 1785 3642
2468 1945 484
2546 2022 882
2655 2131 1435
2792 2269 2137
2825 2301 2730
2915 2391 3282
3012 2489 3780
2468 2461 484
2546 2539 882
2655 2648 1435
2792 2785 2137
2930 2923 2835
3041 3034 3408
3138 3131 3906
2568 2976 584
2646 3054 981
2755 3162 1534
2892 3300 2236
3029 3437 2935
3052 3460 3420
3140 3548 3908
2655 3423 672
2733 3501 1069
2842 3610 1622
2980 3747 2324
3117 3884 3023
3140 3908 3508
3140 3908 3908
2980 585 585
2980 585 904
2980 585 1348
2980 585 1913
2980 585 2474
2980 585 2937
3067 672 3423
2980 984 585
3058 1061 982
3077 1081 1446
3077 1081 2010
3077 1081 2572
3077 1081 3034
3164 1168 3520
2980 1479 585
3058 1557 982
3166 1666 1535
3198 1698 2131
3198 1698 2693
3198 1698 3155
3285 1785 3642
2980 2045 585
3058 2123 982
3166 2232 1535
3304 2369 2237
3336 2401 2831
3336 2401 3293
3424 2489 3780
2980 2562 585
3058 2640 982
3166 2748 1535
3304 2886 2237
3441 3023 2936
3463 3044 3419
3550 3131 3906
2980 2977 585
3058 3055 982
3166 3163 1535
3304 3301 2237
3441 3438 2936
3554 3551 3511
3651 3648 4007
3067 3423 672
3145 3501 1069
3253 3610 1622
3391 3747 2324
3528 3884 3023
3641 3997 3598
3652 4008 4008
3423 672 672
3423 672 991
3423 672 1436
3423 672 2000
3423 672 2561
3423 672 3024
3423 672 3423
3423 1070 672
3501 1148 1069
3520 1168 1533
3520 1168 2097
3520 1168 2658
3520 1168 3121
3520 1168 3520
3423 1567 672
3501 1644 1069
3610 1753 1622
3642 1785 2218
3642 1785 2779
3642 1785 3242
3642 1785 3642
3423 2132 672
3501 2210 1069
3610 2318 1622
3747 2456 2324
3780 2489 2918
3780 2489 3380
3780 2489 3780
3423 2649 672
3501 2726 1069
3610 2835 1622
3747 2973 2324
3884 3110 3023
3906 3131 3506
3906 3131 3906
3423 3064 672
3501 3141 1069
3610 3250 1622
3747 3388 2324
3884 3525 3023
3997 3638 3598
4007 3648 4007
3423 3423 672
3501 3501 1069
3610 3610 1622
3747 3747 2324
3884 3884 3023
3997 3997 3598
4095 4095 4095
