webgl/about-detail/lut_3.3dl
#Created by: Adobe Photoshop Export Color Lookup Plugin
#Description: LUTS_AboutDetails_v0002.psd
0 171 341 512 682 853 1023
0 0 0
10 10 276
55 55 658
94 94 1154
131 131 1661
160 160 2111
183 183 2538
13 319 12
13 319 278
55 349 658
94 389 1154
131 428 1661
160 458 2111
184 483 2540
60 740 57
60 740 312
60 740 664
94 778 1154
131 818 1662
160 851 2113
184 877 2541
99 1253 95
99 1253 350
99 1253 705
99 1253 1160
131 1292 1663
160 1326 2114
184 1355 2542
134 1752 129
134 1752 386
134 1752 744
134 1753 1202
134 1753 1668
160 1786 2116
184 1818 2545
161 2186 156
161 2186 414
161 2187 773
176 2443 1364
194 2792 2154
194 2791 2724
217 2836 3351
217 3375 209
217 3375 531
217 3374 980
217 3373 1563
217 3372 2189
217 3372 2765
217 3371 3347
322 13 12
322 13 278
351 55 658
392 94 1152
430 131 1659
461 160 2109
486 183 2535
322 319 13
346 343 302
379 377 686
420 417 1183
459 456 1692
489 486 2147
513 511 2578
356 739 57
381 765 335
385 769 692
420 807 1184
459 848 1693
489 880 2148
514 906 2580
397 1251 95
422 1280 375
425 1284 733
425 1284 1190
459 1322 1694
490 1357 2150
514 1385 2582
434 1750 129
460 1780 410
463 1784 772
463 1785 1231
463 1784 1699
490 1819 2152
515 1850 2585
463 2183 156
488 2218 438
492 2223 801
540 2487 1398
603 2850 2204
603 2849 2781
627 2894 3428
593 3376 210
623 3440 560
627 3448 1016
627 3447 1602
627 3447 2237
626 3446 2823
626 3445 3423
743 60 58
743 60 311
743 60 662
780 94 1151
821 131 1657
854 160 2106
880 183 2532
743 353 58
770 378 335
772 381 691
810 416 1182
851 455 1690
883 485 2144
910 510 2575
743 739 58
770 765 335
805 800 722
848 843 1221
889 884 1733
921 916 2194
947 942 2631
786 1250 95
813 1279 374
848 1316 763
854 1322 1227
890 1361 1734
922 1395 2197
948 1423 2634
826 1747 129
852 1778 410
888 1819 802
893 1826 1269
894 1826 1739
923 1860 2198
949 1892 2637
856 2180 156
883 2215 438
919 2262 831
1021 2543 1441
1145 2923 2265
1145 2922 2856
1171 2968 3531
1087 3377 210
1119 3441 560
1163 3533 1054
1169 3547 1651
1169 3547 2298
1169 3546 2898
1169 3546 3526
1253 99 95
1253 99 350
1253 99 703
1253 99 1155
1290 131 1655
1325 160 2103
1353 183 2528
1253 393 95
1281 418 374
1284 421 731
1284 421 1186
1322 455 1688
1356 485 2141
1385 510 2571
1253 781 95
1281 807 374
1319 842 762
1325 848 1225
1363 883 1731
1397 915 2191
1425 941 2627
1253 1249 95
1282 1277 374
1320 1315 763
1366 1361 1265
1409 1405 1781
1443 1438 2250
1471 1467 2695
1296 1745 129
1324 1776 409
1362 1817 801
1408 1867 1306
1414 1874 1787
1445 1909 2253
1473 1942 2699
1329 2177 155
1358 2213 437
1396 2259 831
1604 2614 1491
1811 3011 2336
1811 3010 2945
1839 3057 3663
1688 3378 210
1724 3441 560
1772 3533 1054
1830 3659 1702
1837 3676 2368
1837 3675 2987
1836 3675 3660
1744 134 129
1745 134 384
1745 134 740
1745 134 1194
1744 134 1657
1778 159 2100
1808 183 2525
1745 429 129
1775 455 409
1778 457 768
1779 458 1225
1778 457 1690
1811 484 2138
1843 509 2568
1745 818 129
1775 845 409
1816 880 799
1822 886 1264
1823 886 1733
1856 914 2188
1887 940 2624
1746 1289 129
1776 1317 409
1817 1355 800
1867 1401 1304
1874 1407 1783
1908 1437 2247
1941 1465 2691
1747 1744 129
1777 1774 409
1818 1816 800
1869 1865 1305
1918 1915 1827
1957 1953 2302
1990 1986 2755
1783 2174 155
1814 2209 437
1855 2256 829
2160 2636 1502
2501 3085 2395
2507 3092 3028
2541 3138 3805
2299 3379 210
2340 3442 560
2397 3534 1054
2467 3659 1702
2531 3800 2425
2536 3813 3069
2536 3812 3802
2168 160 155
2169 161 411
2169 161 767
2169 160 1224
2169 160 1689
2169 160 2100
2203 183 2522
2169 457 155
2203 483 435
2207 485 796
2208 485 1255
2207 485 1722
2207 485 2138
2241 509 2566
2169 847 155
2204 874 436
2250 909 827
2257 915 1293
2257 915 1765
2256 915 2187
2290 939 2621
2170 1320 155
2205 1348 435
2251 1386 828
2307 1431 1333
2315 1437 1816
2315 1437 2246
2349 1463 2687
2172 1776 155
2206 1807 436
2253 1848 828
2310 1899 1334
2365 1949 1860
2369 1953 2300
2404 1984 2751
2173 2172 155
2208 2207 436
2254 2253 828
2651 2649 1508
3089 3086 2396
3155 3152 3089
3203 3200 3943
2842 3379 210
2891 3443 561
2960 3534 1054
3046 3659 1702
3130 3800 2425
3195 3940 3129
3197 3947 3942
2564 182 176
2564 182 433
2564 182 790
2564 182 1249
2563 182 1715
2564 182 2131
2564 183 2520
2564 480 176
2601 505 457
2605 508 818
2606 508 1280
2605 508 1749
2606 508 2169
2606 508 2562
2563 871 176
2601 898 457
2653 934 850
2659 938 1318
2660 938 1792
2659 938 2218
2660 938 2617
2565 1345 176
2602 1373 457
2653 1410 850
2716 1456 1357
2724 1461 1843
2724 1461 2277
2725 1462 2684
2568 1804 176
2604 1833 458
2656 1876 851
2719 1927 1358
2782 1977 1887
2787 1981 2332
2788 1982 2747
2569 2203 176
2606 2237 458
2658 2283 851
3129 2662 1523
3803 3134 2431
3942 3199 3136
3948 3201 3943
3380 3380 210
3444 3444 561
3535 3535 1055
3660 3660 1703
3800 3800 2426
3940 3940 3130
4095 4095 4095
